resources/scalable/breeze-dark/document-saved.svg

<?xml version="1.0" encoding="UTF-8" standalone="no"?>
<svg
   xmlns:dc="http://purl.org/dc/elements/1.1/"
   xmlns:cc="http://creativecommons.org/ns#"
   xmlns:rdf="http://www.w3.org/1999/02/22-rdf-syntax-ns#"
   xmlns:svg="http://www.w3.org/2000/svg"
   xmlns="http://www.w3.org/2000/svg"
   xmlns:sodipodi="http://sodipodi.sourceforge.net/DTD/sodipodi-0.dtd"
   xmlns:inkscape="http://www.inkscape.org/namespaces/inkscape"
   viewBox="0 0 32 32"
   id="svg2"
   version="1.1"
   inkscape:version="0.91 r13725"
   sodipodi:docname="document-saved.svg">
  <metadata
     id="metadata9">
    <rdf:RDF>
      <cc:Work
         rdf:about="">
        <dc:format>image/svg+xml</dc:format>
        <dc:type
           rdf:resource="http://purl.org/dc/dcmitype/StillImage" />
        <dc:title></dc:title>
      </cc:Work>
    </rdf:RDF>
  </metadata>
  <sodipodi:namedview
     pagecolor="#ffffff"
     bordercolor="#666666"
     borderopacity="1"
     objecttolerance="10"
     gridtolerance="10"
     guidetolerance="10"
     inkscape:pageopacity="0"
     inkscape:pageshadow="2"
     inkscape:window-width="1636"
     inkscape:window-height="1021"
     id="namedview7"
     showgrid="false"
     inkscape:zoom="20.85965"
     inkscape:cx="6.9445538"
     inkscape:cy="14.320167"
     inkscape:window-x="44"
     inkscape:window-y="0"
     inkscape:window-maximized="1"
     inkscape:current-layer="svg2" />
  <defs
     id="defs3051">
    <style
       type="text/css"
       id="current-color-scheme">
      .ColorScheme-Text {
        color:#4d4d4d;
      }
      </style>
  </defs>
  <path
     style="color:#4d4d4d;fill:#f2f2f2;fill-opacity:1;stroke:none"
     d="m 4,4 0,24 5,0 14,0 5,0 L 28,10 27,9 23,5 22,4 21,4 10,4 Z m 1,1 5,0 0,8 11,0 0,-8 0.585938,0 L 27,10.414062 27,27 c -22,0 0,0 -22,0 z m 6,0 6,0 0,7 -6,0 z"
     id="path60"
     class="ColorScheme-Text"
     inkscape:connector-curvature="0"
     sodipodi:nodetypes="ccccccccccccccccccccccccccc" />
  <path
     style="fill:none;fill-rule:evenodd;stroke:#009900;stroke-width:1px;stroke-linecap:butt;stroke-linejoin:miter;stroke-opacity:1"
     d="m 12.954255,20.48248 3.983051,3.983051 7.881356,-7.881356"
     id="path4156"
     inkscape:connector-curvature="0"
     sodipodi:nodetypes="ccc" />
</svg>

<?xml version="1.0" encoding="UTF-8" standalone="no"?>
<svg
   xmlns:dc="http://purl.org/dc/elements/1.1/"
   xmlns:cc="http://creativecommons.org/ns#"
   xmlns:rdf="http://www.w3.org/1999/02/22-rdf-syntax-ns#"
   xmlns:svg="http://www.w3.org/2000/svg"
   xmlns="http://www.w3.org/2000/svg"
   xmlns:sodipodi="http://sodipodi.sourceforge.net/DTD/sodipodi-0.dtd"
   xmlns:inkscape="http://www.inkscape.org/namespaces/inkscape"
   viewBox="0 0 32 32"
   id="svg2"
   version="1.1"
   inkscape:version="0.91 r13725"
   sodipodi:docname="document-saved.svg">
  <metadata
     id="metadata9">
    <rdf:RDF>
      <cc:Work
         rdf:about="">
        <dc:format>image/svg+xml</dc:format>
        <dc:type
           rdf:resource="http://purl.org/dc/dcmitype/StillImage" />
        <dc:title></dc:title>
      </cc:Work>
    </rdf:RDF>
  </metadata>
  <sodipodi:namedview
     pagecolor="#ffffff"
     bordercolor="#666666"
     borderopacity="1"
     objecttolerance="10"
     gridtolerance="10"
     guidetolerance="10"
     inkscape:pageopacity="0"
     inkscape:pageshadow="2"
     inkscape:window-width="1636"
     inkscape:window-height="1021"
     id="namedview7"
     showgrid="false"
     inkscape:zoom="14.75"
     inkscape:cx="12.94113"
     inkscape:cy="21.812925"
     inkscape:window-x="44"
     inkscape:window-y="0"
     inkscape:window-maximized="1"
     inkscape:current-layer="svg2" />
  <defs
     id="defs3051">
    <style
       type="text/css"
       id="current-color-scheme">
      .ColorScheme-Text {
        color:#4d4d4d;
      }
      </style>
  </defs>
  <path
     style="fill:#f2f2f2;fill-opacity:1;stroke:none"
     d="M 4 4 L 4 28 L 9 28 L 23 28 L 28 28 L 28 10 L 27 9 L 23 5 L 22 4 L 21 4 L 10 4 L 4 4 z M 5 5 L 10 5 L 10 13 L 21 13 L 21 5 L 21.585938 5 L 27 10.414062 L 27 27 L 23 27 L 23 19 L 9 19 L 9 27 L 5 27 L 5 5 z M 11 5 L 17 5 L 17 12 L 11 12 L 11 5 z M 10 20 L 22 20 L 22 27 L 10 27 L 10 20 z "
     id="path60"
     class="ColorScheme-Text" />
  <path
     style="fill:none;fill-rule:evenodd;stroke:#009900;stroke-width:2;stroke-linecap:round;stroke-linejoin:round;stroke-miterlimit:4;stroke-dasharray:none;stroke-opacity:0.80307695"
     d="M 13.747434,25.441802 18.594892,30.28926 30.323706,18.560446"
     id="path4139"
     inkscape:connector-curvature="0"
     sodipodi:nodetypes="ccc" />
</svg>
